src/assets/svg/github.svg

<svg height="23" viewBox="0 0 22 23" width="22" xmlns="http://www.w3.org/2000/svg"><path d="m10.9307479 0c-6.00760817 0-10.9307479 4.96583796-10.9307479 10.9734461 0 5.9727491 4.87827324 10.8880497 10.9307479 10.8880497 6.0449691 0 10.9307479-4.9079618 10.9307479-10.8880497 0-6.00760814-4.9231397-10.9734461-10.9307479-10.9734461zm1.9214205 20.3884067c-.6147878.1280947-1.2681042.1921421-1.9214205.1921421s-1.30663265-.0640474-1.92142052-.1921421v-2.9973826c0-.7173637.19214205-.9735531.44833145-1.3194755.13042979-.1491103.20915466-.2828758.79408707-1.1655284l-.98622912-.1537803c-2.53637518-.3714413-3.53544712-1.6909168-3.93257405-2.7156744-.5123788-1.3705133-.24334658-3.08711573.67900197-4.17575392.14093752-.16662316.2561894-.44849824.15378038-.74304932-.19230884-.58926897-.1666232-1.5242936-.0385285-1.88305885.67916879.09707178 1.37751843.58359813 1.95994903.93519141.26836506.15661579.4091358.11525188.53789766.1280947.4680127-.09740535 1.19805241-.33307958 2.31854743-.33307958.6916781 0 1.4218846.10240903 2.1392483.30739394.1282615-.00300224.3344139.10607838.691678-.10240906.6087834-.37094091 1.2834489-.84078827 1.9597822-.93519141.1280947.35876525.1537804 1.29378988-.0383617 1.88305885-.1025758.29455108.0126761.57642616.1537804.74304932.9221818 1.08880496 1.191214 2.80524062.6788352 4.17575392-.3971269 1.0247576-1.3961989 2.3442331-3.9325741 2.7156744l-.9862291.1537803c.6046137.9123412.6683275 1.0217554.7942539 1.1655284.2560226.3459224.4481646.6021118.4481646 1.3194755zm1.2809471-.3714412v-2.6259414c0-.7302065-.1537804-1.2168997-.3587653-1.5756649 1.9471062-.5250549 3.330629-1.678074 3.9454169-3.3304623.6533163-1.7419545.3587653-3.81715539-.7302065-5.25188275.1923089-.85813446.1923089-2.22881447-.2688655-2.86928798-.2049848-.2817083-.4868599-.43548864-.8454583-.43548864-.0128429 0-.0128429 0-.0128429 0-.9932343.05370635-1.7749789.5539095-2.6130985 1.06311933-.7685682-.20498491-1.5499793-.30739394-2.3313903-.30739394-.7940871 0-1.58834097.11525189-2.29269505.30739394-.88231895-.53206004-1.65655805-1.0107473-2.6773127-1.06311933-.32023676 0-.6021118.15378034-.80709667.43548864-.46100754.64047351-.46100754 2.01115352-.26886548 2.86928798-1.08897175 1.43472736-1.38352283 3.52260435-.7302065 5.25188275.61478787 1.6523883 1.9983107 2.8054074 3.94541691 3.3304623-.15895084.2780388-.2847105.6368041-.33424712 1.1223297-.39329078.1356003-.73437627.1797996-1.05161083.086564-.33458067-.0989065-.59527342-.3222382-.82177418-.7031865-.50870945-.8546319-1.37518335-1.5523143-2.36174607-1.4615806l.11258324 1.2759433c.45683772-.0418643.91150721.4414931 1.14768182.8399543.38962139.6561518.91450941 1.08647 1.56048702 1.2772777.4795212.1412711.91784521.1379353 1.38986087.0371941v1.7271103c-3.72758918-1.3066327-6.44743334-4.8675987-6.44743334-9.0435194 0-5.30308728 4.34671357-9.69249908 9.64980088-9.69249908 5.3030873 0 9.6498009 4.3894118 9.6498009 9.69249908 0 4.1759207-2.7198442 7.7368867-6.4474333 9.0435194z" fill="#323232" transform="translate(.006707 .628539)"/></svg>

<?xml version="1.0" encoding="UTF-8"?>
<svg width="22px" height="23px" viewBox="0 0 22 23" version="1.1" xmlns="http://www.w3.org/2000/svg" xmlns:xlink="http://www.w3.org/1999/xlink">
    <!-- Generator: Sketch 51.3 (57544) - http://www.bohemiancoding.com/sketch -->
    <title>github@1x</title>
    <desc>Created with Sketch.</desc>
    <defs></defs>
    <g id="Page-1" stroke="none" stroke-width="1" fill="none" fill-rule="evenodd">
        <g id="About" transform="translate(-231.000000, -475.000000)" fill="#323232" fill-rule="nonzero">
            <g id="github" transform="translate(231.006707, 475.628539)">
                <path d="M10.9307479,0 C4.92313973,0 0,4.96583796 0,10.9734461 C0,16.9461952 4.87827324,21.8614958 10.9307479,21.8614958 C16.975717,21.8614958 21.8614958,16.953534 21.8614958,10.9734461 C21.8614958,4.96583796 16.9383561,0 10.9307479,0 Z M12.8521684,20.3884067 C12.2373806,20.5165014 11.5840642,20.5805488 10.9307479,20.5805488 C10.2774316,20.5805488 9.62411525,20.5165014 9.00932738,20.3884067 L9.00932738,17.3910241 C9.00932738,16.6736604 9.20146943,16.417471 9.45765883,16.0715486 C9.58808862,15.9224383 9.66681349,15.7886728 10.2517459,14.9060202 L9.26551678,14.7522399 C6.7291416,14.3807986 5.73006966,13.0613231 5.33294273,12.0365655 C4.82056393,10.6660522 5.08959615,8.94944977 6.0119447,7.86081158 C6.15288222,7.69418842 6.2681341,7.41231334 6.16572508,7.11776226 C5.97341624,6.52849329 5.99910188,5.59346866 6.12719658,5.23470341 C6.80636537,5.33177519 7.50471501,5.81830154 8.08714561,6.16989482 C8.35551067,6.32651061 8.49628141,6.2851467 8.62504327,6.29798952 C9.09305597,6.20058417 9.82309568,5.96490994 10.9435907,5.96490994 C11.6352688,5.96490994 12.3654753,6.06731897 13.082839,6.27230388 C13.2111005,6.26930164 13.4172529,6.37838226 13.774517,6.16989482 C14.3833004,5.79895391 15.0579659,5.32910655 15.7342992,5.23470341 C15.8623939,5.59346866 15.8880796,6.52849329 15.6959375,7.11776226 C15.5933617,7.41231334 15.7086136,7.69418842 15.8497179,7.86081158 C16.7718997,8.94961654 17.0409319,10.6660522 16.5285531,12.0365655 C16.1314262,13.0613231 15.1323542,14.3807986 12.595979,14.7522399 L11.6097499,14.9060202 C12.2143636,15.8183614 12.2780774,15.9277756 12.4040038,16.0715486 C12.6600264,16.417471 12.8521684,16.6736604 12.8521684,17.3910241 L12.8521684,20.3884067 Z M14.1331155,20.0169655 L14.1331155,17.3910241 C14.1331155,16.6608176 13.9793351,16.1741244 13.7743502,15.8153592 C15.7214564,15.2903043 17.1049792,14.1372852 17.7197671,12.4848969 C18.3730834,10.7429424 18.0785324,8.66774151 16.9895606,7.23301415 C17.1818695,6.37487969 17.1818695,5.00419968 16.7206951,4.36372617 C16.5157103,4.08201787 16.2338352,3.92823753 15.8752368,3.92823753 C15.8623939,3.92823753 15.8623939,3.92823753 15.8623939,3.92823753 C14.8691596,3.98194388 14.087415,4.48214703 13.2492954,4.99135686 C12.4807272,4.78637195 11.6993161,4.68396292 10.9179051,4.68396292 C10.123818,4.68396292 9.32956413,4.79921481 8.62521005,4.99135686 C7.7428911,4.45929682 6.968652,3.98060956 5.94789735,3.92823753 C5.62766059,3.92823753 5.34578555,4.08201787 5.14080068,4.36372617 C4.67979314,5.00419968 4.67979314,6.37487969 4.8719352,7.23301415 C3.78296345,8.66774151 3.48841237,10.7556185 4.1417287,12.4848969 C4.75651657,14.1372852 6.1400394,15.2903043 8.08714561,15.8153592 C7.92819477,16.093398 7.80243511,16.4521633 7.75289849,16.9376889 C7.35960771,17.0732892 7.01852222,17.1174885 6.70128766,17.0242529 C6.36670699,16.9253464 6.10601424,16.7020147 5.87951348,16.3210664 C5.37080403,15.4664345 4.50433013,14.7687521 3.51776741,14.8594858 L3.63035065,16.1354291 C4.08718837,16.0935648 4.54185786,16.5769222 4.77803247,16.9753834 C5.16765386,17.6315352 5.69254188,18.0618534 6.33851949,18.2526611 C6.81804069,18.3939322 7.2563647,18.3905964 7.72838036,18.2898552 L7.72838036,20.0169655 C4.00079118,18.7103328 1.28094702,15.1493668 1.28094702,10.9734461 C1.28094702,5.67035882 5.62766059,1.28094702 10.9307479,1.28094702 C16.2338352,1.28094702 20.5805488,5.67035882 20.5805488,10.9734461 C20.5805488,15.1493668 17.8607046,18.7103328 14.1331155,20.0169655 Z" id="Shape"></path>
            </g>
        </g>
    </g>
</svg>
